symbols/web/attach_money/materialsymbolsoutlined/attach_money_wght100grad200_48px.svg

<svg xmlns="http://www.w3.org/2000/svg" height="48" width="48"><path d="M23.1 41.2v-4.1q-2.75-.25-4.575-1.7-1.825-1.45-2.625-3.95l1.6-.7q.9 2.3 2.475 3.475Q21.55 35.4 24.1 35.4q2.35 0 4.325-1.25t1.975-3.8q0-2.3-1.575-3.7-1.575-1.4-4.925-2.45-3.85-1.2-5.55-2.875-1.7-1.675-1.7-4.225 0-2.6 1.95-4.275 1.95-1.675 4.5-1.925V6.8h1.75v4.1q1.8.1 3.4.975 1.6.875 2.65 2.675l-1.5.85q-.85-1.2-2.15-2.05-1.3-.85-3.2-.85-2.25 0-3.95 1.225Q18.4 14.95 18.4 17q0 1.8 1.075 3.075 1.075 1.275 5.475 2.675 3.75 1.3 5.475 2.975Q32.15 27.4 32.15 30.3q-.05 2.95-2.1 4.775Q28 36.9 24.85 37.1v4.1Z"/></svg>

<svg xmlns="http://www.w3.org/2000/svg" height="48" width="48"><path d="M23.1 41.2V37.1Q20.35 36.85 18.525 35.4Q16.7 33.95 15.9 31.45L17.5 30.75Q18.4 33.05 19.975 34.225Q21.55 35.4 24.1 35.4Q26.45 35.4 28.425 34.15Q30.4 32.9 30.4 30.35Q30.4 28.05 28.825 26.65Q27.25 25.25 23.9 24.2Q20.05 23 18.35 21.325Q16.65 19.65 16.65 17.1Q16.65 14.5 18.6 12.825Q20.55 11.15 23.1 10.9V6.8H24.85V10.9Q26.65 11 28.25 11.875Q29.85 12.75 30.9 14.55L29.4 15.4Q28.55 14.2 27.25 13.35Q25.95 12.5 24.05 12.5Q21.8 12.5 20.1 13.725Q18.4 14.95 18.4 17Q18.4 18.8 19.475 20.075Q20.55 21.35 24.95 22.75Q28.7 24.05 30.425 25.725Q32.15 27.4 32.15 30.3Q32.1 33.25 30.05 35.075Q28 36.9 24.85 37.1V41.2Z"/></svg>
